src/pug/blocks/nav/linkedin.svg

<svg width="32" height="32" viewBox="0 0 32 32" fill="none" xmlns="http://www.w3.org/2000/svg">
<path fill-rule="evenodd" clip-rule="evenodd" d="M10.7979 12.2637H10.7764C9.69775 12.2637 9 11.5382 9 10.6319C9 9.70532 9.71924 9 10.8188 9C11.9189 9 12.5957 9.70532 12.6172 10.6319C12.6172 11.5382 11.9185 12.2637 10.7979 12.2637ZM12.4053 23H9.18994V13.5541H12.4053V23ZM20.7842 23H23.9995L24 17.5829C24 14.6813 22.4136 13.3308 20.2983 13.3308C18.5916 13.3308 17.8274 14.2472 17.4001 14.8907V13.5537H14.1848C14.2271 14.439 14.1848 22.9996 14.1848 22.9996H17.4001V17.7242C17.4001 17.4416 17.4207 17.1598 17.5056 16.9583C17.7385 16.3939 18.2676 15.8097 19.1558 15.8097C20.3191 15.8097 20.7842 16.6761 20.7842 17.9454V23Z" fill="#2C3134"/>
<path fill-rule="evenodd" clip-rule="evenodd" d="M27 3H5C3.89551 3 3 3.89543 3 5V27C3 28.1046 3.89551 29 5 29H27C28.1045 29 29 28.1046 29 27V5C29 3.89543 28.1045 3 27 3ZM5 27V5H27V27H5Z" fill="#2C3134"/>
</svg>

<svg xmlns="http://www.w3.org/2000/svg" width="32" height="32" viewBox="0 0 32 32">
    <path d="M10.798 12.264h-.022C9.698 12.264 9 11.538 9 10.632 9 9.705 9.72 9 10.819 9c1.1 0 1.777.705 1.798 1.632 0 .906-.699 1.632-1.82 1.632zM12.405 23H9.19v-9.446h3.215V23zm8.38 0H24v-5.417c0-2.902-1.586-4.252-3.702-4.252-1.706 0-2.47.916-2.898 1.56v-1.337h-3.215c.042.885 0 9.446 0 9.446H17.4v-5.276c0-.282.02-.564.106-.766.232-.564.762-1.148 1.65-1.148 1.163 0 1.628.866 1.628 2.135V23z"/>
    <path d="M27 3H5a2 2 0 0 0-2 2v22a2 2 0 0 0 2 2h22a2 2 0 0 0 2-2V5a2 2 0 0 0-2-2zM5 27V5h22v22H5z"/>
</svg>
